docs/img/icon-coupon.svg

<svg width="31" height="25" viewBox="0 0 31 25" fill="none" xmlns="http://www.w3.org/2000/svg">
<path d="M1.31704 8.98841L1.02851 9.94588L1.31704 8.98841ZM1.31704 15.8114L1.02851 14.8539L1.31704 15.8114ZM29.183 15.8114L28.8944 16.7689L29.183 15.8114ZM29.183 8.98841L29.4715 9.94588L29.183 8.98841ZM5 0C2.23858 0 0 2.23858 0 5H2C2 3.34315 3.34315 2 5 2V0ZM25.5 0H5V2H25.5V0ZM30.5 5C30.5 2.23858 28.2614 0 25.5 0V2C27.1569 2 28.5 3.34315 28.5 5H30.5ZM30.5 8.58168V5H28.5V8.58168H30.5ZM27.6499 12.3999C27.6499 11.2436 28.4165 10.2638 29.4715 9.94588L28.8944 8.03094C27.0182 8.59634 25.6499 10.337 25.6499 12.3999H27.6499ZM29.4715 14.8539C28.4165 14.536 27.6499 13.5562 27.6499 12.3999H25.6499C25.6499 14.4628 27.0182 16.2035 28.8944 16.7689L29.4715 14.8539ZM30.5 19.8V16.2181H28.5V19.8H30.5ZM25.5 24.8C28.2614 24.8 30.5 22.5614 30.5 19.8H28.5C28.5 21.4569 27.1569 22.8 25.5 22.8V24.8ZM5 24.8H25.5V22.8H5V24.8ZM0 19.8C0 22.5614 2.23858 24.8 5 24.8V22.8C3.34315 22.8 2 21.4569 2 19.8H0ZM0 16.2181V19.8H2V16.2181H0ZM1.60557 16.7689C3.48181 16.2035 4.85009 14.4628 4.85009 12.3999H2.85009C2.85009 13.5562 2.08347 14.536 1.02851 14.8539L1.60557 16.7689ZM4.85009 12.3999C4.85009 10.337 3.48181 8.59634 1.60557 8.03094L1.02851 9.94588C2.08347 10.2638 2.85009 11.2436 2.85009 12.3999H4.85009ZM0 5V8.58168H2V5H0ZM1.60557 8.03094C1.79257 8.08729 2 8.27757 2 8.58168H0C0 9.26629 0.477209 9.77975 1.02851 9.94588L1.60557 8.03094ZM2 16.2181C2 16.5223 1.79257 16.7125 1.60557 16.7689L1.02851 14.8539C0.47721 15.0201 0 15.5335 0 16.2181H2ZM28.8944 16.7689C28.7074 16.7125 28.5 16.5223 28.5 16.2181H30.5C30.5 15.5335 30.0228 15.0201 29.4715 14.8539L28.8944 16.7689ZM28.5 8.58168C28.5 8.27757 28.7074 8.08729 28.8944 8.03094L29.4715 9.94588C30.0228 9.77975 30.5 9.26629 30.5 8.58168H28.5Z" fill="white"/>
<path d="M14.8511 7.22826C15.0511 6.96337 15.449 6.96337 15.649 7.22826L17.269 9.37325C17.3288 9.45247 17.4109 9.51208 17.5047 9.5445L20.0453 10.4223C20.3591 10.5307 20.482 10.9092 20.2919 11.1813L18.7525 13.3848C18.6957 13.4662 18.6643 13.5626 18.6625 13.6619L18.6127 16.3494C18.6065 16.6813 18.2846 16.9152 17.9671 16.8185L15.3957 16.0353C15.3008 16.0064 15.1993 16.0064 15.1044 16.0353L12.533 16.8185C12.2155 16.9152 11.8936 16.6813 11.8874 16.3494L11.8376 13.6619C11.8358 13.5626 11.8044 13.4662 11.7476 13.3848L10.2082 11.1813C10.0181 10.9092 10.141 10.5307 10.4548 10.4223L12.9954 9.5445C13.0892 9.51208 13.1713 9.45247 13.2311 9.37325L14.8511 7.22826Z" stroke="white" stroke-width="2"/>
</svg>

<svg xmlns="http://www.w3.org/2000/svg" width="31" height="25" fill="none"><path fill="#fff" d="m1.317 8.988-.288.958zm0 6.823-.288-.957zm27.866 0-.289.958zm0-6.823.288.958zM5 0a5 5 0 0 0-5 5h2a3 3 0 0 1 3-3zm20.5 0H5v2h20.5zm5 5a5 5 0 0 0-5-5v2a3 3 0 0 1 3 3zm0 3.582V5h-2v3.582zM27.65 12.4c0-1.156.767-2.136 1.822-2.454l-.578-1.915A4.56 4.56 0 0 0 25.65 12.4zm1.822 2.454A2.56 2.56 0 0 1 27.65 12.4h-2a4.56 4.56 0 0 0 3.244 4.369zM30.5 19.8v-3.582h-2V19.8zm-5 5a5 5 0 0 0 5-5h-2a3 3 0 0 1-3 3zM5 24.8h20.5v-2H5zm-5-5a5 5 0 0 0 5 5v-2a3 3 0 0 1-3-3zm0-3.582V19.8h2v-3.582zm1.606.55A4.56 4.56 0 0 0 4.85 12.4h-2a2.56 2.56 0 0 1-1.821 2.454zM4.85 12.4a4.56 4.56 0 0 0-3.244-4.37l-.577 1.916A2.56 2.56 0 0 1 2.85 12.4zM0 5v3.582h2V5zm1.606 3.03A.57.57 0 0 1 2 8.583H0c0 .684.477 1.198 1.029 1.364zM2 16.219a.57.57 0 0 1-.394.55l-.577-1.914C.477 15.02 0 15.534 0 16.218zm26.894.55a.57.57 0 0 1-.394-.55h2c0-.684-.477-1.198-1.029-1.364zM28.5 8.583c0-.304.207-.495.394-.551l.578 1.915c.55-.166 1.028-.68 1.028-1.364z"/><path stroke="#fff" stroke-width="2" d="M14.851 7.228a.5.5 0 0 1 .798 0l1.62 2.145a.5.5 0 0 0 .236.172l2.54.877a.5.5 0 0 1 .247.76l-1.54 2.203a.5.5 0 0 0-.09.277l-.05 2.687a.5.5 0 0 1-.645.47l-2.571-.784a.5.5 0 0 0-.292 0l-2.571.784a.5.5 0 0 1-.646-.47l-.05-2.687a.5.5 0 0 0-.09-.277l-1.539-2.204a.5.5 0 0 1 .247-.759l2.54-.878a.5.5 0 0 0 .236-.17z"/></svg>
